!!!OTL: 48a. Der eifersuechtige Knabe. / [Aeltere Form der Melodie.]
!!!ARE: Europa, Mitteleuropa, Deutschland
!!!SCT: E0048
!!!TXL: @@DE
!!!YEM: Copyright 1995, estate of Helmut Schaffrath.
**kern	**text
*ICvox	*
*M6/8	*
*k[b-]	*
*F:	*
!LO:TX:a:t=Ein wenig langsam und gezogen.	!
!LO:TX:a:t=Jacobi, Jris, 1776, S. 136.	!
{8c	Es
=1	=1
8.f	leuchten
16e	.
8f	drei
8.g	Ster-
16f	-ne
8g	am
=2	=2
8.aL	Him-
16b-	.
16a	.
16gJ	.
4f}	-mel,
{16aL	die
16b-J	.
=3	=3
8.cc	ge-
16dd	-ben
8cc	der
8f	Lieb
8a	ei-
8g	-nen
=4	=4
4.a	Schein.
4r}	.
{16eL	'Gott
16fJ	.
=5	=5
4g	grüß
8a	euch,
8.a	ſchö-
16b-	-nes
8cc	Jung-
=6	=6
4.b-/	-fräu-
4g	-lein!
8r}	.
=7	=7
{4.a	Wo
8g	bind
8f	ich
8g	mein
=8	=8
8.aL	Röß-
16b-J	.
16aL	-lein
16gJ	.
8f	hin?
4r}	.
=9	=9
{4.a	Wo
8g	bind
8f	ich
8g	mein
=10	=10
8.aL	Röß-
16b-J	.
16aL	-lein
16gJ	.
8f	hin?'
8r}	.
==	==
!!!AGN: erzaehlendes Volks - Lied, Sage, Mord, Ballade ?
!!!ONB: ESAC (Essen Associative Code) Database: ERK1
!!!AMT: compound duple
!!!AIN: vox
!!!EED: Helmut Schaffrath
!!!EEV: 1.0
!!!GTL: Sagen von Mordthaten, unschuldig Gesangeg und Hinrichtungen
!!!URL-scan: https://rosdok.uni-rostock.de/mcrviewer/recordIdentifier/rosdok_ppn745146120/iview2/phys_0227.iview2?x=-250.1417780126858&y=965.7689668235835&scale=0.5392104374602399&rotation=0&layout=singlePageLayout&logicalDiv=log_0009
!!!ENC: Anna Maria Matuszewska
!!!EEV: 2024/11/25
*-	*-
